static/assets/images/tokens/usdy.svg

<svg width="256" height="256" viewBox="0 0 256 256" fill="none" xmlns="http://www.w3.org/2000/svg">
<path d="M128 256C198.692 256 256 198.692 256 128C256 57.3075 198.692 0 128 0C57.3075 0 0 57.3075 0 128C0 198.692 57.3075 256 128 256Z" fill="#122B60"/>
<path fill-rule="evenodd" clip-rule="evenodd" d="M197.023 127.5C197.023 89.6316 166.27 58.9334 128.335 58.9334V34C134.801 34 141.115 34.6541 147.212 35.8996C189.893 44.6181 222 82.3161 222 127.5C222 179.139 180.065 221 128.335 221C87.5528 221 52.8582 194.982 40 158.667H67.1371C78.5062 180.868 101.643 196.067 128.335 196.067C166.27 196.067 197.023 165.368 197.023 127.5ZM45.4736 83.8666C61.1779 113.524 92.3925 133.733 128.335 133.733V108.8C97.552 108.8 71.4982 88.5855 62.7688 60.7286C55.8764 67.4737 50.024 75.2737 45.4736 83.8666ZM73.3342 51.8097C78.6783 77.2386 101.273 96.3334 128.335 96.3334C145.578 96.3334 159.557 110.287 159.557 127.5C159.557 144.713 145.578 158.667 128.335 158.667H81.5999C91.6815 173.701 108.85 183.6 128.335 183.6C159.373 183.6 184.534 158.483 184.534 127.5C184.534 96.5169 159.373 71.4 128.335 71.4C111.092 71.4 97.1136 57.4463 97.1136 40.2333V39.3203C88.5466 42.343 80.5516 46.5746 73.3342 51.8097Z" fill="white"/>
</svg>

<svg xmlns="http://www.w3.org/2000/svg" fill="none" viewBox="0 0 256 256"><path fill="#122B60" d="M128 256c70.692 0 128-57.308 128-128S198.692 0 128 0 0 57.308 0 128s57.308 128 128 128"/><path fill="#fff" fill-rule="evenodd" d="M197.023 127.5c0-37.868-30.753-68.567-68.688-68.567V34c6.466 0 12.78.654 18.877 1.9C189.893 44.618 222 82.316 222 127.5c0 51.639-41.935 93.5-93.665 93.5-40.782 0-75.477-26.018-88.335-62.333h27.137c11.37 22.201 34.506 37.4 61.198 37.4 37.935 0 68.688-30.699 68.688-68.567M45.473 83.867c15.705 29.657 46.92 49.866 82.862 49.866V108.8c-30.783 0-56.837-20.214-65.566-48.071a93.8 93.8 0 0 0-17.295 23.138M73.335 51.81c5.344 25.429 27.939 44.523 55.001 44.523 17.243 0 31.222 13.954 31.222 31.167s-13.979 31.167-31.222 31.167H81.6c10.082 15.034 27.25 24.933 46.735 24.933 31.038 0 56.199-25.117 56.199-56.1s-25.161-56.1-56.199-56.1c-17.243 0-31.221-13.954-31.221-31.167v-.913a93.5 93.5 0 0 0-23.78 12.49" clip-rule="evenodd"/></svg>
